X:1
T:Agimus tibi gratias
T:Agimus tibi gratias 3v
T:Orlando di lasso
T:Source : Magnum opus musicum---München---N.Henricus---1604. Editor : André Vierendeels (13/04/15).
T:Notes : Original clefs : C1, C1, C1 Original note values have been halved Square brackets indicate ligatures Music collected by Ferdinando and Rodolpho di Lasso
C:Orlando di lasso
%%score [ 1 2 3 ]
L:1/8
Q:1/4=74
M:2/2
K:F
V:1 treble nm="Superius 1" snm="S 1"
V:2 treble nm="Superius 2" snm="S 2"
V:3 treble nm="Superius 3" snm="S 3"
V:1
 c6 c2 | c6 d2- | dc B3 A/G/ A2 | B2 A3 G F2- | F2 E2 F4 | z4 A4- | A4 F4 | G3 A B2 A2 | A4 d4 | %9
w: A- gi-|mus ti-||bi gra- * *|* ti- as,|Rex|_ o-|mni- * * po-|tens De-|
 e4 d4- | d4 A2 cc | F2 c2 dddd | c d2 c/B/ c4 | B2 z d c/A/B/c/dB | z d G/A/B/c/ d>c B2 | %15
w: * us|_ pro u- ni-|ver- sus be- ne- fi- ci-|is tu- * * *|is, qui vi- * * * * vis|et re- * * * * * *|
 A4 z E2 F | G A2 F F G2 E- | E EF A>GF/E/ FE/D/ | E4 G2 AB | c2 AA B2 G2 | G A>GF/E/ F A2 G/F/ | %21
w: gnas, per o-|mni- a sae- cu- la sae-|* cu- * lo- * * * * * *|rum, per o- mni-|a sae- cu- la sae-|cu- lo- * * * * * * *|
 !fermata!G8 | F3 G AB c2- | c2 d2 c4 | !fermata!c8 |] %25
w: rum,|a- * * * *|* men, a-|men.|
V:2
 z4 A4- | A2 A2 A4 | B3 A/G/ F2 F2 | D3 E FG AF | G3 G F4- | F4 z4 | D8 | _E4 D3 D | D4 =B,4 | %9
w: A-|* gi- mus|ti- * * * bi|gra- * * * * *|* ti- as,|_|Rex|o- mni- po-|trnd De-|
 C4 G4- | G4 F2 EF | A2 F2 BBAB | F2 G2 F4 | z2 G2 A/F/G/A/ B/c/d | c/A/B/c/ d>c BA d2 | %15
w: * us|_ pro u- ni-|ver- sus be- ne- fi- ci-|is tu- is,|qui vi- * * * * * *|vis _ _ _ _ _ _ et re-|
 D4 z C2 D | E F2 D D _E2 C- | CC D2 D4 | C4 z E2 F | G A2 F F G2 E- | E EF A>GF/E/ FE/D/ | %21
w: gnas, per o-|mni- a sae- cu- la sae-|* cu- lo- rum,|_ per o-|mni- a sae- cu- la sae-|* cu _ lo- * * * * * *|
 !fermata!E8 | A3 B cB AG | F8 | !fermata!F8 |] %25
w: rum,|a- * * * * *||men.|
V:3
 z4 F4- | F2 F2 F4 | G4 c4 | F4 D3 D | C4 z4 | c8 | F3 G A2 B2- | BA G4 ^F2 | ^F4 z2 G2- | %9
w: A-|* gi- mus|ti- *|bi gra- ti-|as,|Rex|o- * * mni-|* * * po-|tens De-|
 G2 c4 =BA | =B4 c2 GA | D2 A2 GG^FG | A2 B3 A/G/ A2 | B4 z2 G2 | A/F/G/A/B G2 ^F G2 | ^F4 G2 AB | %16
w: * us _ _|_ pro u- ni-|ver- sus be- ne- fi- ci-|is tu- * * *|is, qui|vi- * * * * vis et re-|gnas, per o- mni-|
 c2 AA B2 G2 | G A>GF/E/ F A2 G/F/ | G4 z C2 D | E F2 D D _E2 C- | CC D2 D4 | !fermata!C8 | %22
w: a sae- cu- la sae-|cu- lo- * * * * * * *|rum, per o-|mni- a sae- cu- la sae-|* cu- lo rum.|_|
 c4 F3 G | A2 B4 AG | !fermata!A8 |] %25
w: a- * *||men.|

